X:1
T:Title
%%score { 1 | ( 2 3 ) }
L:1/8
M:6/8
K:Eb
V:1 treble nm="Grand Piano"
V:2 bass 
V:3 bass 
V:1
 z3 z2[Q:1/4=100] E | G2 G [FA][EG][FA] | [GB]3 c2 c | B2 G [DF][EG][FA] | G3- G2 E | %5
 G2 G [FA][EG][FA] | [GB]3 c2 c | B2 G [DF]G[B,FA] | [B,EG]3- [B,EG]2 [B,GB] | %9
 [Ac]2 [EAc] [ce]d[EAc] | [EGB]3 [B,EG]2 [B,GB] | [EAc]2 [EAc] [EGB][EG][G,E] | %12
 [B,DF]3- [B,DF]2 [B,DF] | [B,EG]2 [B,EG] [FA][EG][FA] | [GB]3 c2 c | B2 e dcd | %16
[M:5/8] [Ge]-[Ge]- [Ge]3 |[M:1/8] [B,B] |[M:3/4] [Ge]2 [Ge][Ge] de | f3 [EAc]2 [Af] | %20
 [Ae]2 [Ad] [Ac]2 [DAB] | [EAc]3 [B,GB]2 [B,GB] | [Ge]2 [Ge][Ge] de |[M:7/8] f3 c3 f | %24
[M:3/4] e2 e[Fd] [Ec][Fd] |[M:5/8] [Ge]-[Ge]- [Ge]3 |] %26
V:2
 z3 z2 [E,G,] | [E,B,E]2 [E,B,E] [E,B,]2 [E,B,] | [E,B,]3[K:treble] [A,A]2 [A,EA] | %3
 [B,EG]2[K:bass] [B,E] [B,,B,]2 [B,,B,] | [E,B,E]3- [E,B,E]2 [E,G,] | %5
 [E,B,E]2 [E,B,E] [E,B,]2 [E,B,] | [E,B,]3[K:treble] [A,A]2 [A,EA] | [B,EG]2[K:bass] [B,E] z EB,, | %8
 E,3- E,2 E, | A,2 A,[K:treble] z B[K:bass]A, | E,3 E,2 E, | z3 .E,3 | B,,3- B,,2 B,, | %13
 E,2 E, [E,B,]2 [E,B,] | [E,B,]3[K:treble] [A,A]2 [A,EA] | [B,EG]2 [B,G] FE[B,F] | %16
[M:5/8][K:bass] [E,B,]-[E,B,]- [E,B,]3 |[M:1/8] z |[M:3/4] z2 z .B,3[K:treble] | %19
 [A,CA]3[K:bass] [A,,A,]2 [A,,C] | [B,,B,]2 [B,,B,] [B,,B,]2 B,, | E,3 E,2 E, | %22
 z2 z .B,3[K:treble] |[M:7/8] [A,CA]3 [A,EA]3 [A,CA] | %24
[M:3/4] [B,G]2 [B,G][K:bass] [B,,B,]2 [B,,B,] |[M:5/8] [E,B,]-[E,B,]- [E,B,]3 |] %26
V:3
 x6 | x6 | x3[K:treble] x3 | x2[K:bass] x4 | x6 | x6 | x3[K:treble] x3 | z3[K:bass] .[B,,B,]3 | %8
 x6 | z3[K:treble] .[A,E]3[K:bass] | x6 | A,,2 A,, z B,E, | x6 | x6 | x3[K:treble] x3 | z3 .B,3 | %16
[M:5/8][K:bass] x5 |[M:1/8] x |[M:3/4] [E,B,]2 [E,B,]E,[K:treble] [F,F][G,B,E] | x3[K:bass] x3 | %20
 x6 | x6 | [E,B,]2 [E,B,]E,[K:treble] [F,F][G,B,E] |[M:7/8] x7 |[M:3/4] x3[K:bass] x3 | %25
[M:5/8] x5 |] %26

